-- TO SuperCollider
--s.boot
--
--(
--s.options.numOutputBusChannels = 10;
--s.options.numBuffers = 1024 * 16;
--s.options.memSize = 8192 * 16;
--s.quit;
--
--s.waitForBoot {
--
-- ~dirt = SuperDirt(2, s);
-- ~dirt.loadSoundFiles("C:\\Users\\Mert\\Dropbox\\Whalehouse\\99s\\*");
--
-- s.sync;
-- ~dirt.start(57120, (0, 2 .. 9));
--}
--)

let pat = "x*16"

d1 $ sound "fm1 ~ fm2" # speed 1

d1 $ silence

import ProcessingOSC

v1 <- testStream

v1 $ thing "sphere*16"
    # x (scale (-2) 2 $ slow 20.1 $ sine1)
    # z (scale (-2) 2 $ slow 19.23 $ (0.75 <~) $ sine1)
    # y (scale 1 2 $ slow 14.1312 sine1)
    # duration 10
